icons/line/close-circle.svg

<svg width="24" height="24" viewBox="0 0 24 24" fill="none" xmlns="http://www.w3.org/2000/svg">
<path fill-rule="evenodd" clip-rule="evenodd" d="M4 12C4 7.58172 7.58172 4 12 4C16.4183 4 20 7.58172 20 12C20 16.4183 16.4183 20 12 20C7.58172 20 4 16.4183 4 12ZM12 2C6.47715 2 2 6.47715 2 12C2 17.5228 6.47715 22 12 22C17.5228 22 22 17.5228 22 12C22 6.47715 17.5228 2 12 2ZM10.2071 8.79289C9.81658 8.40237 9.18342 8.40237 8.79289 8.79289C8.40237 9.18342 8.40237 9.81658 8.79289 10.2071L10.5858 12L8.79289 13.7929C8.40237 14.1834 8.40237 14.8166 8.79289 15.2071C9.18342 15.5976 9.81658 15.5976 10.2071 15.2071L12 13.4142L13.7929 15.2071C14.1834 15.5976 14.8166 15.5976 15.2071 15.2071C15.5976 14.8166 15.5976 14.1834 15.2071 13.7929L13.4142 12L15.2071 10.2071C15.5976 9.81658 15.5976 9.18342 15.2071 8.79289C14.8166 8.40237 14.1834 8.40237 13.7929 8.79289L12 10.5858L10.2071 8.79289Z" fill="currentColor"/>
</svg>

<svg width="24" height="24" fill="none" xmlns="http://www.w3.org/2000/svg"><path fill-rule="evenodd" clip-rule="evenodd" d="M4 12a8 8 0 1116 0 8 8 0 01-16 0zm8-10C6.477 2 2 6.477 2 12s4.477 10 10 10 10-4.477 10-10S17.523 2 12 2zm-1.793 6.793a1 1 0 00-1.414 1.414L10.586 12l-1.793 1.793a1 1 0 101.414 1.414L12 13.414l1.793 1.793a1 1 0 001.414-1.414L13.414 12l1.793-1.793a1 1 0 00-1.414-1.414L12 10.586l-1.793-1.793z" fill="currentColor"/></svg>
